assets/images/shape/testimonial-left-shape.svg

<svg width="242" height="487" viewBox="0 0 242 487" fill="none" xmlns="http://www.w3.org/2000/svg">
<g opacity="0.2">
<path d="M366.642 246.018C366.642 314.517 311.119 370.016 242.644 370.016C174.169 370.016 118.621 314.493 118.621 246.018C118.621 177.542 174.144 122.019 242.644 122.019C311.143 122.019 366.642 177.542 366.642 246.018Z" fill="#39CA6E"/>
<path d="M242.62 91.2514C266.276 91.2514 285.46 90.7626 285.46 65.5671C285.46 40.3715 242.62 0 242.62 0C242.62 0 199.805 40.3715 199.805 65.5671C199.805 90.7626 218.989 91.2514 242.62 91.2514ZM91.2514 244.38C91.2514 220.748 90.7626 201.564 65.5426 201.564C40.3227 201.564 0 244.38 0 244.38C0 244.38 40.3715 287.22 65.5671 287.22C90.7626 287.22 91.2758 268.06 91.2758 244.38H91.2514ZM244.38 395.749C220.724 395.749 201.564 396.237 201.564 421.433C201.564 446.628 244.38 487 244.38 487C244.38 487 287.22 446.628 287.22 421.433C287.22 396.237 268.036 395.749 244.38 395.749ZM421.457 199.78C396.237 199.78 395.773 218.94 395.773 242.596C395.773 266.252 396.262 285.411 421.457 285.411C446.653 285.411 487.024 242.596 487.024 242.596C487.024 242.596 446.653 199.78 421.457 199.78ZM135.24 136.462C151.955 119.746 165.176 105.841 147.361 88.0256C129.546 70.2103 70.6991 71.9454 70.6991 71.9454C70.6991 71.9454 68.964 130.768 86.7793 148.607C104.595 166.423 118.5 153.202 135.24 136.486V136.462ZM398.999 147.337C416.814 129.521 415.055 70.6746 415.055 70.6746C415.055 70.6746 356.232 68.9395 338.417 86.7548C320.602 104.57 333.798 118.475 350.538 135.215C367.278 151.931 381.184 165.152 398.999 147.337ZM88.0256 339.663C70.2103 357.479 71.9454 416.301 71.9454 416.301C71.9454 416.301 130.768 418.036 148.583 400.221C166.398 382.405 153.202 368.5 136.462 351.76C119.746 335.045 105.841 321.824 88.0011 339.663H88.0256ZM351.785 350.538C335.069 367.254 321.848 381.184 339.663 398.999C357.479 416.814 416.325 415.079 416.325 415.079C416.325 415.079 418.06 356.257 400.245 338.442C382.43 320.626 368.5 333.823 351.785 350.563V350.538Z" fill="#39CA6E"/>
</g>
</svg>

<svg version="1.2" xmlns="http://www.w3.org/2000/svg" viewBox="0 0 242 487" width="242" height="487">
	<title>testimonial-left-shape-svg</title>
	<style>
		.s0 { fill: #ee913e } 
	</style>
	<g id="Layer" style="opacity: .2">
		<path id="Layer" class="s0" d="m366.6 246c0 68.5-55.5 124-124 124-68.4 0-124-55.5-124-124 0-68.5 55.5-124 124-124 68.5 0 124 55.5 124 124z"/>
		<path id="Layer" class="s0" d="m242.6 91.3c23.7 0 42.9-0.5 42.9-25.7 0-25.2-42.9-65.6-42.9-65.6 0 0-42.8 40.4-42.8 65.6 0 25.2 19.2 25.7 42.8 25.7zm-151.3 153.1c0-23.7-0.5-42.8-25.8-42.8-25.2 0-65.5 42.8-65.5 42.8 0 0 40.4 42.8 65.6 42.8 25.2 0 25.7-19.1 25.7-42.8zm153.1 151.3c-23.7 0-42.8 0.5-42.8 25.7 0 25.2 42.8 65.6 42.8 65.6 0 0 42.8-40.4 42.8-65.6 0-25.2-19.1-25.7-42.8-25.7zm177.1-195.9c-25.2 0-25.7 19.1-25.7 42.8 0 23.7 0.5 42.8 25.7 42.8 25.2 0 65.5-42.8 65.5-42.8 0 0-40.3-42.8-65.5-42.8zm-286.2-63.3c16.7-16.8 29.9-30.7 12.1-48.5-17.8-17.8-76.7-16.1-76.7-16.1 0 0-1.7 58.9 16.1 76.7 17.8 17.8 31.7 4.6 48.5-12.1zm263.7 10.9c17.8-17.9 16.1-76.7 16.1-76.7 0 0-58.8-1.7-76.7 16.1-17.8 17.8-4.6 31.7 12.2 48.4 16.7 16.8 30.6 30 48.4 12.2zm-310.9 192.3c-17.9 17.8-16.1 76.6-16.1 76.6 0 0 58.8 1.8 76.6-16.1 17.8-17.8 4.6-31.7-12.1-48.4-16.7-16.7-30.6-30-48.5-12.1zm263.8 10.9c-16.7 16.7-30 30.6-12.1 48.4 17.8 17.8 76.6 16.1 76.6 16.1 0 0 1.8-58.8-16.1-76.6-17.8-17.9-31.7-4.7-48.4 12.1z"/>
	</g>
</svg>
